X: 1
T: Ritual, The
Z: Damien Rogeau
S: https://thesession.org/tunes/15566#setting29184
R: reel
M: 4/4
L: 1/8
K: Gmaj
G3A BEFG|G2cB BEGA|G3A BEFG|Gdd2 cBBE|
G3A BEFG|G2cB BEGA|G2cB dcBG|1ABGE G2DE:||2ABGE GABd||
||:g3f edBA|G2cB BABd|gafg g2de|gdd2 cB (3Bcd|
g3f edBA|G2cB BEGA|G2cB dcBG|1ABGE GABd:||2ABGE G2DE||
